public/assets/images/icons/logotype.svg

<?xml version="1.0" encoding="UTF-8"?>
<svg width="91px" height="15px" viewBox="0 0 91 15" version="1.1" xmlns="http://www.w3.org/2000/svg" xmlns:xlink="http://www.w3.org/1999/xlink">
    <!-- Generator: Sketch 40.2 (33826) - http://www.bohemiancoding.com/sketch -->
    <title>logotype</title>
    <desc>Created with Sketch.</desc>
    <defs></defs>
    <g id="Page-1" stroke="none" stroke-width="1" fill="none" fill-rule="evenodd">
        <g id="logotype" fill="#50E3C2">
            <path d="M0,14.7524072 L11.6574966,14.7524072 L11.6574966,9.69738652 L8.56258597,9.69738652 L8.56258597,11.8638239 L5.32324622,11.8638239 C4.91059147,11.8638239 4.43603851,11.9257221 4.43603851,11.9257221 C4.43603851,11.8844567 4.80742779,11.5955983 5.09628611,11.1829436 L11.4099037,2.22833563 L11.4099037,0 L0.0825309491,0 L0.0825309491,4.97248968 L3.17744154,4.97248968 L3.17744154,2.88858322 L6.06602476,2.88858322 C6.4786795,2.88858322 6.95323246,2.82668501 6.95323246,2.82668501 C6.95323246,2.86795048 6.58184319,3.1568088 6.29298487,3.56946355 L0,12.4828061 L0,14.7524072 Z M13.0811554,11.7193948 C13.0811554,13.8651994 14.7111417,15 16.568088,15 C18.8376891,15 19.7042641,13.2462173 19.7042641,13.2462173 L19.7455296,13.2462173 C19.7455296,13.2462173 19.7042641,13.3906465 19.7042641,13.5763411 L19.7042641,13.6382393 C19.7042641,14.1540578 20.0962861,14.7524072 21.127923,14.7524072 L24.2022008,14.7524072 L24.2022008,12.173315 L23.4181568,12.173315 C23.1292985,12.173315 22.9642366,12.0082531 22.9642366,11.7193948 L22.9642366,8.21182944 C22.9642366,5.4264099 21.3136176,3.87895461 18.218707,3.87895461 C15.5364512,3.87895461 13.7207703,5.26134801 13.7207703,5.26134801 L14.9587345,7.67537827 C14.9587345,7.67537827 16.4442916,6.66437414 17.8885832,6.66437414 C18.69326,6.66437414 19.394773,6.9738652 19.394773,7.84044017 L19.394773,8.14993122 L18.7551582,8.14993122 C17.1045392,8.14993122 13.0811554,8.60385144 13.0811554,11.7193948 L13.0811554,11.7193948 Z M16.6712517,11.4718019 C16.6712517,10.522696 17.9298487,10.1513067 19.1059147,10.1513067 L19.4360385,10.1513067 L19.4360385,10.3988996 C19.4360385,11.3273728 18.5281981,12.4209078 17.6203576,12.4209078 C17.042641,12.4209078 16.6712517,12.0288858 16.6712517,11.4718019 L16.6712517,11.4718019 Z M25.5020633,14.7524072 L31.7537827,14.7524072 L31.7537827,12.173315 L30.4126547,12.173315 L30.4126547,10.5639615 C30.4126547,8.85144429 30.8253095,7.11829436 32.4552957,7.11829436 C33.1361761,7.11829436 33.2806052,7.67537827 33.2806052,8.45942228 L33.2806052,14.7524072 L38.1911967,14.7524072 L38.1911967,12.173315 L36.8500688,12.173315 L36.8500688,10.3576341 C36.8500688,8.58321871 37.3452545,7.11829436 38.8927098,7.11829436 C39.5735901,7.11829436 39.7180193,7.67537827 39.7180193,8.45942228 L39.7180193,14.7524072 L44.6286107,14.7524072 L44.6286107,12.173315 L43.2874828,12.173315 L43.2874828,7.8610729 C43.2874828,4.93122421 41.7606602,3.87895461 39.9449794,3.87895461 C38.3149931,3.87895461 37.0151307,4.74552957 36.437414,5.88033012 L36.3961486,5.88033012 C35.8803301,4.39477304 34.786795,3.87895461 33.6313618,3.87895461 C31.8363136,3.87895461 30.8046768,5.09628611 30.2682256,5.9215956 L30.2269601,5.9215956 C30.2269601,5.9215956 30.2475928,5.77716644 30.2475928,5.67400275 L30.2475928,5.32324622 C30.2475928,4.60110041 29.7317744,4.12654746 28.7620358,4.12654746 L25.3988996,4.12654746 L25.3988996,6.70563961 L26.389271,6.70563961 C26.6781293,6.70563961 26.8431912,6.85006878 26.8431912,7.1389271 L26.8431912,12.173315 L25.5020633,12.173315 L25.5020633,14.7524072 Z M45.9491059,14.7524072 L52.2008253,14.7524072 L52.2008253,12.173315 L50.8596974,12.173315 L50.8596974,10.5639615 C50.8596974,8.85144429 51.2723521,7.11829436 52.9023384,7.11829436 C53.5832187,7.11829436 53.7276479,7.67537827 53.7276479,8.45942228 L53.7276479,14.7524072 L58.6382393,14.7524072 L58.6382393,12.173315 L57.2971114,12.173315 L57.2971114,10.3576341 C57.2971114,8.58321871 57.7922971,7.11829436 59.3397524,7.11829436 C60.0206327,7.11829436 60.1650619,7.67537827 60.1650619,8.45942228 L60.1650619,14.7524072 L65.0756534,14.7524072 L65.0756534,12.173315 L63.7345254,12.173315 L63.7345254,7.8610729 C63.7345254,4.93122421 62.2077029,3.87895461 60.392022,3.87895461 C58.7620358,3.87895461 57.4621733,4.74552957 56.8844567,5.88033012 L56.8431912,5.88033012 C56.3273728,4.39477304 55.2338377,3.87895461 54.0784044,3.87895461 C52.2833563,3.87895461 51.2517194,5.09628611 50.7152682,5.9215956 L50.6740028,5.9215956 C50.6740028,5.9215956 50.6946355,5.77716644 50.6946355,5.67400275 L50.6946355,5.32324622 C50.6946355,4.60110041 50.1788171,4.12654746 49.2090784,4.12654746 L45.8459422,4.12654746 L45.8459422,6.70563961 L46.8363136,6.70563961 C47.1251719,6.70563961 47.2902338,6.85006878 47.2902338,7.1389271 L47.2902338,12.173315 L45.9491059,12.173315 L45.9491059,14.7524072 Z M66.0041265,11.7193948 C66.0041265,13.8651994 67.6341128,15 69.4910591,15 C71.7606602,15 72.6272352,13.2462173 72.6272352,13.2462173 L72.6685007,13.2462173 C72.6685007,13.2462173 72.6272352,13.3906465 72.6272352,13.5763411 L72.6272352,13.6382393 C72.6272352,14.1540578 73.0192572,14.7524072 74.0508941,14.7524072 L77.1251719,14.7524072 L77.1251719,12.173315 L76.3411279,12.173315 C76.0522696,12.173315 75.8872077,12.0082531 75.8872077,11.7193948 L75.8872077,8.21182944 C75.8872077,5.4264099 74.2365887,3.87895461 71.1416781,3.87895461 C68.4594223,3.87895461 66.6437414,5.26134801 66.6437414,5.26134801 L67.8817056,7.67537827 C67.8817056,7.67537827 69.3672627,6.66437414 70.8115543,6.66437414 C71.6162311,6.66437414 72.3177442,6.9738652 72.3177442,7.84044017 L72.3177442,8.14993122 L71.6781293,8.14993122 C70.0275103,8.14993122 66.0041265,8.60385144 66.0041265,11.7193948 L66.0041265,11.7193948 Z M69.5942228,11.4718019 C69.5942228,10.522696 70.8528198,10.1513067 72.0288858,10.1513067 L72.3590096,10.1513067 L72.3590096,10.3988996 C72.3590096,11.3273728 71.4511692,12.4209078 70.5433287,12.4209078 C69.9656121,12.4209078 69.5942228,12.0288858 69.5942228,11.4718019 L69.5942228,11.4718019 Z M78.1155433,9.44979367 C78.1155433,12.7303989 79.9724897,15 82.7991747,15 C85.2751032,15 86.0797799,13.2462173 86.0797799,13.2462173 L86.1210454,13.2462173 C86.1210454,13.2462173 86.0797799,13.3906465 86.0797799,13.5763411 L86.0797799,13.6382393 C86.0797799,14.1540578 86.4718019,14.7524072 87.5034388,14.7524072 L90.5777166,14.7524072 L90.5777166,12.173315 L89.7936726,12.173315 C89.5048143,12.173315 89.3397524,12.0082531 89.3397524,11.7193948 L89.3397524,0 L84.3259972,0 L84.3259972,2.57909216 L85.7702889,2.57909216 L85.7702889,4.25034388 C85.7702889,4.64236589 85.7909216,4.93122421 85.7909216,4.93122421 L85.7496561,4.93122421 C85.7496561,4.93122421 85.0687758,3.87895461 83.0261348,3.87895461 C80.0962861,3.87895461 78.1155433,6.06602476 78.1155433,9.44979367 L78.1155433,9.44979367 Z M81.7056396,9.44979367 C81.7056396,7.79917469 82.6547455,6.89133425 83.8308116,6.89133425 C85.1925722,6.89133425 85.8734525,8.12929849 85.8734525,9.53232462 C85.8734525,11.2448418 84.8418157,12.0495186 83.7689133,12.0495186 C82.5515818,12.0495186 81.7056396,10.997249 81.7056396,9.44979367 L81.7056396,9.44979367 Z" id="Zammad"></path>
        </g>
    </g>
</svg>

<?xml version="1.0" encoding="utf-8"?>
<!-- Generator: Adobe Illustrator 23.0.1, SVG Export Plug-In . SVG Version: 6.00 Build 0)  -->
<svg version="1.1" id="Layer_1" xmlns="http://www.w3.org/2000/svg" xmlns:xlink="http://www.w3.org/1999/xlink" x="0px" y="0px"
	 viewBox="0 0 91 15" style="enable-background:new 0 0 91 15;" xml:space="preserve">
<style type="text/css">
	.st0{display:none;}
	.st1{display:inline;fill-rule:evenodd;clip-rule:evenodd;fill:#50E3C2;}
	.st2{display:inline;}
	.st3{font-family:'aBigDeal';}
	.st4{font-size:10px;}
</style>
<title>logotype</title>
<desc>Created with Sketch.</desc>
<g id="logotype" class="st0">
	<path id="Zammad" class="st1" d="M0,14.8h11.7V9.7H8.6v2.2H5.3c-0.4,0-0.9,0.1-0.9,0.1c0,0,0.4-0.3,0.7-0.7l6.3-9V0H0.1v5h3.1V2.9
		h2.9C6.5,2.9,7,2.8,7,2.8c0,0-0.4,0.3-0.7,0.7L0,12.5V14.8z M13.1,11.7c0,2.1,1.6,3.3,3.5,3.3c2.3,0,3.1-1.8,3.1-1.8h0
		c0,0,0,0.1,0,0.3v0.1c0,0.5,0.4,1.1,1.4,1.1h3.1v-2.6h-0.8c-0.3,0-0.5-0.2-0.5-0.5V8.2c0-2.8-1.7-4.3-4.7-4.3
		c-2.7,0-4.5,1.4-4.5,1.4L15,7.7c0,0,1.5-1,2.9-1c0.8,0,1.5,0.3,1.5,1.2v0.3h-0.6C17.1,8.1,13.1,8.6,13.1,11.7L13.1,11.7z
		 M16.7,11.5c0-0.9,1.3-1.3,2.4-1.3h0.3v0.2c0,0.9-0.9,2-1.8,2C17,12.4,16.7,12,16.7,11.5L16.7,11.5z M25.5,14.8h6.3v-2.6h-1.3v-1.6
		c0-1.7,0.4-3.4,2-3.4c0.7,0,0.8,0.6,0.8,1.3v6.3h4.9v-2.6h-1.3v-1.8c0-1.8,0.5-3.2,2-3.2c0.7,0,0.8,0.6,0.8,1.3v6.3h4.9v-2.6h-1.3
		V7.9c0-2.9-1.5-4-3.3-4c-1.6,0-2.9,0.9-3.5,2h0c-0.5-1.5-1.6-2-2.8-2c-1.8,0-2.8,1.2-3.4,2h0c0,0,0-0.1,0-0.2V5.3
		c0-0.7-0.5-1.2-1.5-1.2h-3.4v2.6h1c0.3,0,0.5,0.1,0.5,0.4v5h-1.3V14.8z M45.9,14.8h6.3v-2.6h-1.3v-1.6c0-1.7,0.4-3.4,2-3.4
		c0.7,0,0.8,0.6,0.8,1.3v6.3h4.9v-2.6h-1.3v-1.8c0-1.8,0.5-3.2,2-3.2c0.7,0,0.8,0.6,0.8,1.3v6.3h4.9v-2.6h-1.3V7.9
		c0-2.9-1.5-4-3.3-4c-1.6,0-2.9,0.9-3.5,2h0c-0.5-1.5-1.6-2-2.8-2c-1.8,0-2.8,1.2-3.4,2h0c0,0,0-0.1,0-0.2V5.3
		c0-0.7-0.5-1.2-1.5-1.2h-3.4v2.6h1c0.3,0,0.5,0.1,0.5,0.4v5h-1.3V14.8z M66,11.7c0,2.1,1.6,3.3,3.5,3.3c2.3,0,3.1-1.8,3.1-1.8h0
		c0,0,0,0.1,0,0.3v0.1c0,0.5,0.4,1.1,1.4,1.1h3.1v-2.6h-0.8c-0.3,0-0.5-0.2-0.5-0.5V8.2c0-2.8-1.7-4.3-4.7-4.3
		c-2.7,0-4.5,1.4-4.5,1.4l1.2,2.4c0,0,1.5-1,2.9-1c0.8,0,1.5,0.3,1.5,1.2v0.3h-0.6C70,8.1,66,8.6,66,11.7L66,11.7z M69.6,11.5
		c0-0.9,1.3-1.3,2.4-1.3h0.3v0.2c0,0.9-0.9,2-1.8,2C70,12.4,69.6,12,69.6,11.5L69.6,11.5z M78.1,9.4c0,3.3,1.9,5.6,4.7,5.6
		c2.5,0,3.3-1.8,3.3-1.8h0c0,0,0,0.1,0,0.3v0.1c0,0.5,0.4,1.1,1.4,1.1h3.1v-2.6h-0.8c-0.3,0-0.5-0.2-0.5-0.5V0h-5v2.6h1.4v1.7
		c0,0.4,0,0.7,0,0.7h0c0,0-0.7-1.1-2.7-1.1C80.1,3.9,78.1,6.1,78.1,9.4L78.1,9.4z M81.7,9.4c0-1.7,0.9-2.6,2.1-2.6
		c1.4,0,2,1.2,2,2.6c0,1.7-1,2.5-2.1,2.5C82.6,12,81.7,11,81.7,9.4L81.7,9.4z"/>
</g>
<g id="Layer_2" class="st0">
	<text transform="matrix(1 0 0 1 0.8813 12.4206)" class="st2 st3 st4">DRAGONWAR.IO</text>
</g>
<image style="overflow:visible;" width="1879" height="242" xlink:href="../../../../../../../../../../Downloads/draw-text.png"  transform="matrix(4.673962e-02 0 0 4.673962e-02 1.5881 1.8445)">
</image>
</svg>
